packages/icon/src/svg/arrow-up-right.icon.svg

<svg width="24" height="24" viewBox="0 0 24 24" fill="none" xmlns="http://www.w3.org/2000/svg">
<path d="M5.17674 17.7668C5.07911 17.6691 5.07911 17.5109 5.17674 17.4132L15.59 7H9.24996C9.11189 7 8.99996 6.88807 8.99996 6.75V5.25C8.99996 5.11193 9.11189 5 9.24996 5H19V14.75C19 14.8881 18.888 15 18.75 15H17.25C17.1119 15 17 14.8881 17 14.75V8.41L6.58674 18.8232C6.48911 18.9209 6.33082 18.9209 6.23319 18.8232L5.17674 17.7668Z" fill="white"/>
</svg>

<svg aria-label="arrow up right icon" viewBox="0 0 24 24"><path d="M5.177 17.767a.25.25 0 010-.354L15.59 7H9.25A.25.25 0 019 6.75v-1.5A.25.25 0 019.25 5H19v9.75a.25.25 0 01-.25.25h-1.5a.25.25 0 01-.25-.25V8.41L6.587 18.823a.25.25 0 01-.354 0l-1.056-1.056z"/></svg>
